SVG_Azure_Grouped/Application/Enterprise Application.svg

<?xml version="1.0" encoding="UTF-8" standalone="no"?>
<!-- Generated by Microsoft Visio, SVG Export Enterprise Application.svg Page-1 -->

<svg
   xmlns:dc="http://purl.org/dc/elements/1.1/"
   xmlns:cc="http://creativecommons.org/ns#"
   xmlns:rdf="http://www.w3.org/1999/02/22-rdf-syntax-ns#"
   xmlns:svg="http://www.w3.org/2000/svg"
   xmlns="http://www.w3.org/2000/svg"
   xmlns:sodipodi="http://sodipodi.sourceforge.net/DTD/sodipodi-0.dtd"
   xmlns:inkscape="http://www.inkscape.org/namespaces/inkscape"
   width="0.78742957in"
   height="0.78743404in"
   viewBox="0 0 56.695019 56.695285"
   xml:space="preserve"
   class="st4"
   version="1.1"
   id="svg43"
   sodipodi:docname="Enterprise Application.svg"
   style="font-size:12px;overflow:visible;color-interpolation-filters:sRGB;fill:none;fill-rule:evenodd;stroke-linecap:square;stroke-miterlimit:3"
   inkscape:version="0.92.5 (2060ec1f9f, 2020-04-08)"><metadata
   id="metadata47"><rdf:RDF><cc:Work
       rdf:about=""><dc:format>image/svg+xml</dc:format><dc:type
         rdf:resource="http://purl.org/dc/dcmitype/StillImage" /></cc:Work></rdf:RDF></metadata><sodipodi:namedview
   pagecolor="#ffffff"
   bordercolor="#666666"
   borderopacity="1"
   objecttolerance="10"
   gridtolerance="10"
   guidetolerance="10"
   inkscape:pageopacity="0"
   inkscape:pageshadow="2"
   inkscape:window-width="640"
   inkscape:window-height="480"
   id="namedview45"
   showgrid="false"
   inkscape:zoom="1.4022698"
   inkscape:cx="37.796501"
   inkscape:cy="37.795409"
   inkscape:window-x="0"
   inkscape:window-y="0"
   inkscape:window-maximized="0"
   inkscape:current-layer="svg43" />
	<style
   type="text/css"
   id="style2">
	<![CDATA[
		.st1 {fill:url(#grad0-6);stroke:none;stroke-linecap:butt;stroke-width:34.7657}
		.st2 {fill:#32bedd;stroke:none;stroke-linecap:butt;stroke-width:34.7657}
		.st3 {fill:#b4ec36;stroke:none;stroke-linecap:butt;stroke-width:33.0878}
		.st4 {fill:none;fill-rule:evenodd;font-size:12px;overflow:visible;stroke-linecap:square;stroke-miterlimit:3}
	]]>
	</style>

	<defs
   id="Patterns_And_Gradients">
		<linearGradient
   id="grad0-6"
   x1="-0.002120435"
   y1="77.725713"
   x2="48.53394"
   y2="77.725713"
   gradientTransform="scale(1.0003309,0.99966917)"
   gradientUnits="userSpaceOnUse">
			<stop
   offset="0"
   stop-color="#5ea0ef"
   stop-opacity="1"
   id="stop4" />
			<stop
   offset="0.18"
   stop-color="#589eed"
   stop-opacity="1"
   id="stop6" />
			<stop
   offset="0.41"
   stop-color="#4897e9"
   stop-opacity="1"
   id="stop8" />
			<stop
   offset="0.66"
   stop-color="#2e8ce1"
   stop-opacity="1"
   id="stop10" />
			<stop
   offset="0.94"
   stop-color="#0a7cd7"
   stop-opacity="1"
   id="stop12" />
			<stop
   offset="1"
   stop-color="#0078d4"
   stop-opacity="1"
   id="stop14" />
		</linearGradient>
	</defs>
	<g
   id="g41"
   transform="translate(-34.766079,-34.763323)">
		<title
   id="title18">Page-1</title>
		<g
   id="group14249-1"
   transform="translate(34.7682,-34.7657)">
			<title
   id="title20">Enterprise Application.14249</title>
			<g
   id="group14250-2">
				<title
   id="title22"> Icon-identity-225</title>
				<g
   id="shape14251-3"
   transform="translate(0,-8.17104)">
					<title
   id="title24">path11</title>
					<path
   d="m 16.96,111.6 h 14.57 v 14.62 H 16.96 Z M 0.13,92.23 h 14.4 V 77.7 H 2.02 A 2.01874,2.01754 -180 0 0 0,79.72 Z m 1.89,33.99 H 14.53 V 111.6 H 0 v 12.51 a 2.01874,2.01754 -180 0 0 2.02,2.11 z M 0,109.41 H 14.53 V 94.65 H 0 Z m 33.95,16.81 h 12.51 a 2.01874,2.01754 -180 0 0 2.02,-2.01 V 111.6 H 33.95 Z M 17.13,109.41 h 14.4 V 94.65 H 16.96 Z m 16.99,0 H 48.55 V 94.65 h -14.6 z m 0,-31.47 V 92.23 H 48.55 V 79.72 A 2.01874,2.01754 -180 0 0 46.53,77.7 Z M 17.29,92.46 H 31.53 V 77.7 H 16.96 Z"
   class="st1"
   id="path26"
   inkscape:connector-curvature="0"
   style="fill:url(#grad0-6);stroke:none;stroke-width:34.76570129;stroke-linecap:butt" />
				</g>
				<g
   id="shape14252-7"
   transform="translate(28.6997)">
					<title
   id="title29">circle15</title>
					<ellipse
   cx="13.9966"
   cy="112.236"
   rx="13.9966"
   ry="13.9883"
   class="st2"
   id="ellipse31"
   style="fill:#32bedd;stroke:none;stroke-width:34.76570129;stroke-linecap:butt" />
				</g>
				<g
   id="shape14253-9"
   transform="translate(31.1599,-0.992294)">
					<title
   id="title34">path17-0-0</title>
					<path
   d="m 22.22,115.86 c -0.67,0.35 -1.63,0.16 -2.08,0.51 -0.86,0.49 -1.56,1.22 -2.02,2.11 0,0.19 0,0.48 -0.22,0.58 -0.9,0.6 -1.79,1.24 -0.96,2.59 -0.96,0 -0.64,-0.87 -1.09,-1.12 -1.42,-0.62 -3.06,0.21 -3.39,1.73 -0.11,0.46 0.1,0.94 0.51,1.18 0.42,0.23 0.95,0.05 1.15,-0.38 0.17,-0.3 0.55,-0.39 0.83,-0.2 0,0.52 -0.89,1.44 0.58,1.48 0.39,0 0.29,0.44 0.19,0.73 -0.1,0.29 0.19,0.77 0.61,0.96 0.41,0.19 0,0 0,0.16 -1.19,0 -1.44,-1.44 -2.6,-1.6 -0.46,-0.12 -0.92,-0.27 -1.37,-0.45 -0.87,-0.28 -1.86,-0.44 -2.05,-1.72 -0.15,-0.66 -0.57,-1.23 -1.16,-1.57 -0.38,-0.26 -0.6,-0.74 -0.99,-1.03 -0.15,-0.43 -0.39,-0.82 -0.7,-1.15 -0.6,-0.79 -0.77,-1.84 -0.45,-2.78 0.57,-1.77 0.53,-3.5 -0.24,-5.19 -0.33,-1.02 -0.46,-2.27 -1.61,-2.94 -1.16,-0.67 -0.96,0.38 -1.41,0.16 -0.45,-0.23 -0.71,0.41 -0.84,0.48 -0.92,0.25 -1.73,1.05 -2.91,0.93 0.45,-0.23 0.8,-0.36 1.12,-0.55 0.32,-0.19 0.93,-0.45 0.22,-1.21 -0.7,-0.77 -0.45,-1.89 1.44,-2.66 -0.16,-0.45 -1.31,-0.35 -0.8,-1.18 0.52,-0.84 0.9,-0.42 1.38,0 0.32,-0.61 -0.39,-1.38 0.16,-1.73 0.72,-0.41 1.5,-0.73 2.31,-0.93 0.4,-0.21 0.89,-0.05 1.09,0.35 0.57,0.9 1.72,1.06 2.3,1.95 0.16,0.29 0.48,0 0.71,0 1.31,-0.44 2.17,0.39 3.2,1.06 1.02,0.67 0.86,1.09 1.69,0.99 0.22,-0.05 0.46,-0.05 0.68,0 0.51,0.23 0.99,0.35 1.37,-0.19 0.41,-0.04 0.74,-0.34 0.84,-0.74 0.19,-0.28 0.29,-0.7 0.77,-0.51 -0.24,0.91 -0.11,1.87 0.35,2.69 0.41,-0.32 0.83,-0.51 0.35,-1.25 -0.44,-0.71 -0.04,-1.64 0.8,-1.79 0.76,-0.25 1.6,0.05 2.02,0.74 0.61,1.08 0.8,2.33 1.5,3.2 0.23,0.28 0,0.41 0,0.64 0,0.22 -0.57,0 -0.89,-0.2 l 0.22,1.38 c -0.95,0.42 -2.06,0.08 -2.62,-0.8 0,-0.38 0,-0.54 0.38,-0.74 0.39,-0.19 0.61,-0.35 0.61,-0.76 0.04,-0.26 -0.09,-0.52 -0.32,-0.64 -0.25,0 -0.41,0 -0.48,0.28 -0.06,0.29 -1.06,0.8 -0.9,1.7 0.17,0.9 -0.6,0.7 -1.05,0.45 -1.06,-0.55 -1.44,0.41 -1.89,0.93 -0.45,0.51 0,1.08 0.51,1.47 0.51,0.38 0.99,0.67 1.19,1.28 0.53,-0.48 0.86,-1.14 0.92,-1.86 0,-0.57 0.23,-1.37 1.03,-1.47 0.62,-0.05 1.19,0.32 1.41,0.9 0.16,0.35 0.41,0.38 0.73,0.41 0.73,1.57 1.31,3.2 1.73,4.87 l -1.18,-0.16 c 0,-0.93 -0.8,-0.51 -1.25,-0.71 -0.13,0.58 0.61,0.74 0.58,1.32 z"
   class="st3"
   id="path36"
   inkscape:connector-curvature="0"
   style="fill:#b4ec36;stroke:none;stroke-width:33.08779907;stroke-linecap:butt" />
				</g>
			</g>
		</g>
	</g>
</svg>

<?xml version="1.0" encoding="UTF-8" standalone="no"?>
<!DOCTYPE svg PUBLIC "-//W3C//DTD SVG 1.1//EN" "http://www.w3.org/Graphics/SVG/1.1/DTD/svg11.dtd">
<!-- Generated by Microsoft Visio, SVG Export Enterprise Application.svg Page-1 -->
<svg xmlns="http://www.w3.org/2000/svg" xmlns:xlink="http://www.w3.org/1999/xlink" xmlns:ev="http://www.w3.org/2001/xml-events"
		width="1.75315in" height="1.75311in" viewBox="0 0 126.227 126.224" xml:space="preserve" color-interpolation-filters="sRGB"
		class="st4">
	<style type="text/css">
	<![CDATA[
		.st1 {fill:url(#grad0-6);stroke:none;stroke-linecap:butt;stroke-width:34.7657}
		.st2 {fill:#32bedd;stroke:none;stroke-linecap:butt;stroke-width:34.7657}
		.st3 {fill:#b4ec36;stroke:none;stroke-linecap:butt;stroke-width:33.0878}
		.st4 {fill:none;fill-rule:evenodd;font-size:12px;overflow:visible;stroke-linecap:square;stroke-miterlimit:3}
	]]>
	</style>

	<defs id="Patterns_And_Gradients">
		<linearGradient id="grad0-6" x1="0" y1="0" x2="1" y2="0" gradientTransform="rotate(90 0.5 0.5)">
			<stop offset="0" stop-color="#5ea0ef" stop-opacity="1"/>
			<stop offset="0.18" stop-color="#589eed" stop-opacity="1"/>
			<stop offset="0.41" stop-color="#4897e9" stop-opacity="1"/>
			<stop offset="0.66" stop-color="#2e8ce1" stop-opacity="1"/>
			<stop offset="0.94" stop-color="#0a7cd7" stop-opacity="1"/>
			<stop offset="1" stop-color="#0078d4" stop-opacity="1"/>
		</linearGradient>
	</defs>
	<g>
		<title>Page-1</title>
		<g id="group13902-1" transform="translate(34.7682,-34.7657)">
			<title>Enterprise Application.13902</title>
			<g id="group13903-2">
				<title> Icon-identity-225</title>
				<g id="shape13904-3" transform="translate(5.63549E-13,-8.17104)">
					<title>path11</title>
					<path d="M16.96 111.6 L31.53 111.6 L31.53 126.22 L16.96 126.22 L16.96 111.6 ZM0.13 92.23 L14.53 92.23 L14.53
								 77.7 L2.02 77.7 A2.01874 2.01754 -180 0 0 -0 79.72 L0.13 92.23 ZM2.02 126.22 L14.53 126.22 L14.53
								 111.6 L0 111.6 L0 124.11 A2.01874 2.01754 -180 0 0 2.02 126.22 ZM0 109.41 L14.53 109.41 L14.53 94.65
								 L0 94.65 L0 109.41 ZM33.95 126.22 L46.46 126.22 A2.01874 2.01754 -180 0 0 48.48 124.21 L48.48 111.6
								 L33.95 111.6 L33.95 126.22 ZM17.13 109.41 L31.53 109.41 L31.53 94.65 L16.96 94.65 L17.13 109.41
								 ZM34.12 109.41 L48.55 109.41 L48.55 94.65 L33.95 94.65 L34.12 109.41 ZM34.12 77.94 L34.12 92.23
								 L48.55 92.23 L48.55 79.72 A2.01874 2.01754 -180 0 0 46.53 77.7 L34.12 77.94 ZM17.29 92.46 L31.53
								 92.46 L31.53 77.7 L16.96 77.7 L17.29 92.46 Z" class="st1"/>
				</g>
				<g id="shape13905-7" transform="translate(28.6997,1.42109E-14)">
					<title>circle15</title>
					<ellipse cx="13.9966" cy="112.236" rx="13.9966" ry="13.9883" class="st2"/>
				</g>
				<g id="shape13906-9" transform="translate(31.1599,-0.992294)">
					<title>path17-0-0</title>
					<path d="M22.22 115.86 C21.55 116.21 20.59 116.02 20.14 116.37 C19.28 116.86 18.58 117.59 18.12 118.48 C18.12
								 118.67 18.12 118.96 17.9 119.06 C17 119.66 16.11 120.3 16.94 121.65 C15.98 121.65 16.3 120.78 15.85
								 120.53 C14.43 119.91 12.79 120.74 12.46 122.26 C12.35 122.72 12.56 123.2 12.97 123.44 C13.39 123.67
								 13.92 123.49 14.12 123.06 C14.29 122.76 14.67 122.67 14.95 122.86 C14.95 123.38 14.06 124.3 15.53
								 124.34 C15.92 124.34 15.82 124.78 15.72 125.07 C15.62 125.36 15.91 125.84 16.33 126.03 C16.74 126.22
								 16.33 126.03 16.33 126.19 C15.14 126.19 14.89 124.75 13.73 124.59 C13.27 124.47 12.81 124.32 12.36
								 124.14 C11.49 123.86 10.5 123.7 10.31 122.42 C10.16 121.76 9.74 121.19 9.15 120.85 C8.77 120.59
								 8.55 120.11 8.16 119.82 C8.01 119.39 7.77 119 7.46 118.67 C6.86 117.88 6.69 116.83 7.01 115.89 C7.58
								 114.12 7.54 112.39 6.77 110.7 C6.44 109.68 6.31 108.43 5.16 107.76 C4 107.09 4.2 108.14 3.75 107.92
								 C3.3 107.69 3.04 108.33 2.91 108.4 C1.99 108.65 1.18 109.45 0 109.33 C0.45 109.1 0.8 108.97 1.12
								 108.78 C1.44 108.59 2.05 108.33 1.34 107.57 C0.64 106.8 0.89 105.68 2.78 104.91 C2.62 104.46 1.47
								 104.56 1.98 103.73 C2.5 102.89 2.88 103.31 3.36 103.73 C3.68 103.12 2.97 102.35 3.52 102 C4.24 101.59
								 5.02 101.27 5.83 101.07 C6.23 100.86 6.72 101.02 6.92 101.42 C7.49 102.32 8.64 102.48 9.22 103.37
								 C9.38 103.66 9.7 103.37 9.93 103.37 C11.24 102.93 12.1 103.76 13.13 104.43 C14.15 105.1 13.99 105.52
								 14.82 105.42 C15.04 105.37 15.28 105.37 15.5 105.42 C16.01 105.65 16.49 105.77 16.87 105.23 C17.28
								 105.19 17.61 104.89 17.71 104.49 C17.9 104.21 18 103.79 18.48 103.98 C18.24 104.89 18.37 105.85
								 18.83 106.67 C19.24 106.35 19.66 106.16 19.18 105.42 C18.74 104.71 19.14 103.78 19.98 103.63 C20.74
								 103.38 21.58 103.68 22 104.37 C22.61 105.45 22.8 106.7 23.5 107.57 C23.73 107.85 23.5 107.98 23.5
								 108.21 C23.5 108.43 22.93 108.21 22.61 108.01 L22.83 109.39 C21.88 109.81 20.77 109.47 20.21 108.59
								 C20.21 108.21 20.21 108.05 20.59 107.85 C20.98 107.66 21.2 107.5 21.2 107.09 C21.24 106.83 21.11
								 106.57 20.88 106.45 C20.63 106.45 20.47 106.45 20.4 106.73 C20.34 107.02 19.34 107.53 19.5 108.43
								 C19.67 109.33 18.9 109.13 18.45 108.88 C17.39 108.33 17.01 109.29 16.56 109.81 C16.11 110.32 16.56
								 110.89 17.07 111.28 C17.58 111.66 18.06 111.95 18.26 112.56 C18.79 112.08 19.12 111.42 19.18 110.7
								 C19.18 110.13 19.41 109.33 20.21 109.23 C20.83 109.18 21.4 109.55 21.62 110.13 C21.78 110.48 22.03
								 110.51 22.35 110.54 C23.08 112.11 23.66 113.74 24.08 115.41 L22.9 115.25 C22.9 114.32 22.1 114.74
								 21.65 114.54 C21.52 115.12 22.26 115.28 22.23 115.86 L22.22 115.86 Z" class="st3"/>
				</g>
			</g>
		</g>
	</g>
</svg>
